X:284
T: We'll Gang Nae Mair to Yon Town
N: O'Farrell's Pocket Companion v.3 (Sky ed. p.129)
N: "Scotch"
M: 2/4
L: 1/8
R: march
Q: 240
K: G
B| Gggd| B2 Gd| BdGd| BAAB| Gggd| B2 Gd| BdAc| BGG :|
d| BGdG| eGdG| BGdG| cAAd| BGdG| eGdG| BdAc| BGG :|
d| gagd| B2 Gd| BGdG| cAA>g| b/a/g/f/ gd| B2 Gd | BdAc| BGG :|
